app/assets/images/heroicons/micro/musical-note.svg

<svg width="16" height="16" viewBox="0 0 16 16" fill="none" xmlns="http://www.w3.org/2000/svg">
<path d="M13.9997 1.75001C13.9997 1.52652 13.9 1.31467 13.7278 1.17219C13.5557 1.02971 13.3289 0.971435 13.1094 1.01325L5.60771 2.44214C5.25397 2.50952 4.99805 2.81879 4.99805 3.17889V5.67889C4.99805 5.69702 4.9987 5.71507 5 5.73302V9.73045C5 10.2106 4.65876 10.6229 4.18711 10.7128L3.60783 10.8231C2.67494 11.0008 2 11.8165 2 12.7661C2 14.0069 3.12916 14.9413 4.34802 14.7091L4.9509 14.5943C5.85043 14.4229 6.50123 13.6365 6.50123 12.7208V11.1783C6.50123 11.164 6.50082 11.1496 6.5 11.1354V6.29915L12.5 5.15629V8.30188C12.5 8.78201 12.1588 9.19438 11.6871 9.28421L11.103 9.39547C10.1701 9.57317 9.49518 10.3888 9.49518 11.3385C9.49518 12.5792 10.6243 13.5136 11.8432 13.2815L12.169 13.2194C13.2314 13.017 14 12.0882 14 11.0068L13.9997 1.75001Z" fill="black"/>
</svg>

<svg xmlns="http://www.w3.org/2000/svg" viewBox="0 0 16 16" fill="currentColor" aria-hidden="true" data-slot="icon">
  <path d="M14 1.75a.75.75 0 0 0-.89-.737l-7.502 1.43a.75.75 0 0 0-.61.736v2.5c0 .018 0 .036.002.054V9.73a1 1 0 0 1-.813.983l-.58.11a1.978 1.978 0 0 0 .741 3.886l.603-.115c.9-.171 1.55-.957 1.55-1.873v-1.543l-.001-.043V6.3l6-1.143v3.146a1 1 0 0 1-.813.982l-.584.111a1.978 1.978 0 0 0 .74 3.886l.326-.062A2.252 2.252 0 0 0 14 11.007V1.75Z"/>
</svg>
